icons/System/lock-unlock-line.svg

<svg viewBox="0 0 24 24" xmlns="http://www.w3.org/2000/svg"><path d="M7 10H20C20.5523 10 21 10.4477 21 11V21C21 21.5523 20.5523 22 20 22H4C3.44772 22 3 21.5523 3 21V11C3 10.4477 3.44772 10 4 10H5V9C5 5.13401 8.13401 2 12 2C14.7405 2 17.1131 3.5748 18.2624 5.86882L16.4731 6.76344C15.6522 5.12486 13.9575 4 12 4C9.23858 4 7 6.23858 7 9V10ZM5 12V20H19V12H5ZM10 15H14V17H10V15Z"/></svg>

<svg xmlns="http://www.w3.org/2000/svg" viewBox="0 0 24 24">
    <g>
        <path fill="none" d="M0 0h24v24H0z"/>
        <path d="M7 10h13a1 1 0 0 1 1 1v10a1 1 0 0 1-1 1H4a1 1 0 0 1-1-1V11a1 1 0 0 1 1-1h1V9a7 7 0 0 1 13.262-3.131l-1.789.894A5 5 0 0 0 7 9v1zm-2 2v8h14v-8H5zm5 3h4v2h-4v-2z"/>
    </g>
</svg>
